src/assets/tokens/MAI.svg

<svg width="171" height="177" viewBox="0 0 171 177" fill="none" xmlns="http://www.w3.org/2000/svg">
<ellipse opacity="0.84" cx="84.7629" cy="172.474" rx="56.7543" ry="4.42241" fill="url(#paint0_radial)"/>
<circle cx="85.5" cy="85.5" r="85.5" fill="url(#paint1_linear)"/>
<circle cx="85.5001" cy="85.5" r="68.2845" stroke="url(#paint2_linear)" stroke-width="2"/>
<g filter="url(#filter0_d)">
<path d="M117.797 51.6981H109.464L84.9135 103.538L60.4526 51.6981H52.0302V120.205H61.3486V74.9087L82.6735 120.205H87.2431L108.478 74.9087V120.205H117.797V51.6981Z" fill="white"/>
<path d="M38.3276 71.3725H131.497V81.1798H38.3276V71.3725Z" fill="white"/>
<path d="M38.3305 93.4392H131.5V103.247H38.3305V93.4392Z" fill="white"/>
</g>
<defs>
<filter id="filter0_d" x="36.3276" y="51.6981" width="97.1724" height="74.507" filterUnits="userSpaceOnUse" color-interpolation-filters="sRGB">
<feFlood flood-opacity="0" result="BackgroundImageFix"/>
<feColorMatrix in="SourceAlpha" type="matrix" values="0 0 0 0 0 0 0 0 0 0 0 0 0 0 0 0 0 0 127 0" result="hardAlpha"/>
<feOffset dy="4"/>
<feGaussianBlur stdDeviation="1"/>
<feComposite in2="hardAlpha" operator="out"/>
<feColorMatrix type="matrix" values="0 0 0 0 0.845833 0 0 0 0 0.267847 0 0 0 0 0.295702 0 0 0 1 0"/>
<feBlend mode="normal" in2="BackgroundImageFix" result="effect1_dropShadow"/>
<feBlend mode="normal" in="SourceGraphic" in2="effect1_dropShadow" result="shape"/>
</filter>
<radialGradient id="paint0_radial" cx="0" cy="0" r="1" gradientUnits="userSpaceOnUse" gradientTransform="translate(84.7629 172.474) rotate(90) scale(4.42241 56.7543)">
<stop stop-color="#CB1922"/>
<stop offset="0.296875" stop-color="#FF636B"/>
<stop offset="1" stop-color="#FF636B" stop-opacity="0"/>
</radialGradient>
<linearGradient id="paint1_linear" x1="85.5" y1="0" x2="85.5" y2="171" gradientUnits="userSpaceOnUse">
<stop stop-color="#FFA6AA"/>
<stop offset="0.205653" stop-color="#FB7C83"/>
<stop offset="0.518899" stop-color="#FA515A"/>
<stop offset="1" stop-color="#FF5C65"/>
</linearGradient>
<linearGradient id="paint2_linear" x1="85.5001" y1="16.2155" x2="85.5001" y2="154.784" gradientUnits="userSpaceOnUse">
<stop stop-color="#E3252E"/>
<stop offset="1" stop-color="#FF898F"/>
</linearGradient>
</defs>
</svg>

<svg fill="none" height="177" width="171" xmlns="http://www.w3.org/2000/svg" xmlns:xlink="http://www.w3.org/1999/xlink"><filter id="a" color-interpolation-filters="sRGB" filterUnits="userSpaceOnUse" height="74.507" width="97.172" x="36.328" y="51.698"><feFlood flood-opacity="0" result="BackgroundImageFix"/><feColorMatrix in="SourceAlpha" result="hardAlpha" values="0 0 0 0 0 0 0 0 0 0 0 0 0 0 0 0 0 0 127 0"/><feOffset dy="4"/><feGaussianBlur stdDeviation="1"/><feComposite in2="hardAlpha" operator="out"/><feColorMatrix values="0 0 0 0 0.845833 0 0 0 0 0.267847 0 0 0 0 0.295702 0 0 0 1 0"/><feBlend in2="BackgroundImageFix" result="effect1_dropShadow"/><feBlend in="SourceGraphic" in2="effect1_dropShadow" result="shape"/></filter><radialGradient id="b" cx="0" cy="0" gradientTransform="matrix(0 4.42241 -56.7543 0 84.763 172.474)" gradientUnits="userSpaceOnUse" r="1"><stop offset="0" stop-color="#cb1922"/><stop offset=".297" stop-color="#ff636b"/><stop offset="1" stop-color="#ff636b" stop-opacity="0"/></radialGradient><linearGradient id="c" gradientUnits="userSpaceOnUse" x1="85.5" x2="85.5" y2="171"><stop offset="0" stop-color="#ffa6aa"/><stop offset=".206" stop-color="#fb7c83"/><stop offset=".519" stop-color="#fa515a"/><stop offset="1" stop-color="#ff5c65"/></linearGradient><linearGradient id="d" gradientUnits="userSpaceOnUse" x1="85.5" x2="85.5" y1="16.215" y2="154.784"><stop offset="0" stop-color="#e3252e"/><stop offset="1" stop-color="#ff898f"/></linearGradient><ellipse cx="84.763" cy="172.474" fill="url(#b)" opacity=".84" rx="56.754" ry="4.422"/><circle cx="85.5" cy="85.5" fill="url(#c)" r="85.5"/><circle cx="85.5" cy="85.5" r="68.284" stroke="url(#d)" stroke-width="2"/><g fill="#fff" filter="url(#a)"><path d="m117.797 51.698h-8.333l-24.55 51.84-24.461-51.84h-8.423v68.507h9.319v-45.296l21.325 45.296h4.57l21.234-45.296v45.296h9.319z"/><path d="m38.328 71.373h93.169v9.807h-93.17v-9.808zm.002 22.066h93.17v9.808h-93.17z"/></g></svg>
